X: 112
T: the Caledonia REEL
T: (or MISS Cates FANCY)
%R: reel
B: J.Gray's Twenty four Country Dances (for the Year 1812) p.11 #2
S: http://www.eatmt.org.uk/gray_1812.htm 2014-8-7
Z: 2014 John Chambers <jc:trillian.mit.edu>
N: The title presumably refers to the Great Comet of 1811.
N: Fixed rhythm between the strains by shortening the 2nd strain's pickup note.
M: C|
L: 1/8
K: G
D |\
G2GB AcBd | G2B2 (c/B/A/G/) FD |\
G2GB AcBe | dBcA GG2 :|\
d |\
g2bg agfg | efge dcBG |
g2bg agfg | egfa g2g2 |\
g2bg agfg | egdg cgBg |\
gfed efge | dcBA GG2 |]
% - - - - - - - - - - - - - - - - - - - - - - - - -
%%begintext align
%% 1st Lady go round the 2d Gent: followed by her
%% Partner__ the Gent: go round the 2d Lady the same,
%% lead down middle, up again, Allemande.
%%endtext
% - - - - - - - - - - - - - - - - - - - - - - - - -
